Numix-GalliumOS/48/devices/battery-caution.svg

<svg xmlns="http://www.w3.org/2000/svg" viewBox="0 0 48 48">
 <defs>
  <linearGradient id="linearGradient3790" y1="-7" x2="0" y2="23" gradientUnits="userSpaceOnUse">
   <stop style="stop-color:#839496;stop-opacity:1"/>
   <stop offset="1" style="stop-color:#667678;stop-opacity:1"/>
  </linearGradient>
 </defs>
 <path d="m 22 8 c -1.108 0 -2 0.892 -2 2 l 0 1 l -2 0 c -1.108 0 -2 0.892 -2 2 l 0 25 c 0 1.108 0.892 2 2 2 l 12 0 c 1.108 0 2 -0.892 2 -2 l 0 -25 c 0 -1.108 -0.892 -2 -2 -2 l -2 0 l 0 -1 c 0 -1.108 -0.892 -2 -2 -2 l -4 0 z" style="fill:url(#linearGradient3790);fill-opacity:1;stroke:none"/>
 <rect width="16" height="7.25" x="16" y="32.75" rx="2" style="fill:#6fa7ce;opacity:1;fill-opacity:1;stroke:none;fill-rule:nonzero"/>
 <rect width="2" height="3" x="24" y="8" style="fill:#fff;opacity:0.2;fill-opacity:1;stroke:none"/>
 <rect rx="2" y="11" x="16" height="29" width="16" style="fill:#6fa7ce;opacity:0.2;fill-opacity:1;stroke:none;fill-rule:nonzero"/>
 <rect width="3" height="29" x="27" y="11" style="fill:#fff;opacity:0.2;fill-opacity:1;stroke:none"/>
</svg>

<?xml version="1.0" encoding="UTF-8" standalone="no"?>
<svg
   xmlns:dc="http://purl.org/dc/elements/1.1/"
   xmlns:cc="http://creativecommons.org/ns#"
   xmlns:rdf="http://www.w3.org/1999/02/22-rdf-syntax-ns#"
   xmlns:svg="http://www.w3.org/2000/svg"
   xmlns="http://www.w3.org/2000/svg"
   xmlns:xlink="http://www.w3.org/1999/xlink"
   xmlns:sodipodi="http://sodipodi.sourceforge.net/DTD/sodipodi-0.dtd"
   xmlns:inkscape="http://www.inkscape.org/namespaces/inkscape"
   viewBox="0 0 48 48"
   id="svg2"
   version="1.1"
   inkscape:version="0.91 r"
   width="100%"
   height="100%"
   sodipodi:docname="battery-caution.svg">
  <metadata
     id="metadata14">
    <rdf:RDF>
      <cc:Work
         rdf:about="">
        <dc:format>image/svg+xml</dc:format>
        <dc:type
           rdf:resource="http://purl.org/dc/dcmitype/StillImage" />
        <dc:title />
      </cc:Work>
    </rdf:RDF>
  </metadata>
  <defs
     id="defs12">
    <linearGradient
       id="linearGradient3784">
      <stop
         style="stop-color:#839496;stop-opacity:1;"
         offset="0"
         id="stop3786" />
      <stop
         style="stop-color:#667678;stop-opacity:1;"
         offset="1"
         id="stop3788" />
    </linearGradient>
    <linearGradient
       inkscape:collect="always"
       xlink:href="#linearGradient3784"
       id="linearGradient3790"
       x1="22.454058"
       y1="-7"
       x2="22.454058"
       y2="23"
       gradientUnits="userSpaceOnUse" />
  </defs>
  <sodipodi:namedview
     pagecolor="#ffffff"
     bordercolor="#666666"
     borderopacity="1"
     objecttolerance="10"
     gridtolerance="10"
     guidetolerance="10"
     inkscape:pageopacity="0"
     inkscape:pageshadow="2"
     inkscape:window-width="1920"
     inkscape:window-height="1056"
     id="namedview10"
     showgrid="true"
     inkscape:zoom="22.627417"
     inkscape:cx="14.46182"
     inkscape:cy="22.929124"
     inkscape:window-x="0"
     inkscape:window-y="24"
     inkscape:window-maximized="1"
     inkscape:current-layer="svg2">
    <inkscape:grid
       type="xygrid"
       id="grid2993" />
  </sodipodi:namedview>
  <path
     style="fill:url(#linearGradient3790);fill-opacity:1;stroke:none"
     d="M 22 8 C 20.892 8 20 8.892 20 10 L 20 11 L 18 11 C 16.892 11 16 11.892 16 13 L 16 38 C 16 39.108 16.892 40 18 40 L 30 40 C 31.108 40 32 39.108 32 38 L 32 13 C 32 11.892 31.108 11 30 11 L 28 11 L 28 10 C 28 8.892 27.108 8 26 8 L 22 8 z "
     id="rect2995" />
  <rect
     style="opacity:1;fill:#6fa7ce;fill-opacity:1;fill-rule:nonzero;stroke:none;stroke-width:3;stroke-linecap:butt;stroke-linejoin:miter;stroke-miterlimit:4;stroke-dasharray:none;stroke-dashoffset:0;stroke-opacity:1"
     id="rect4172"
     width="16"
     height="7.25"
     x="16"
     y="32.75"
     rx="2"
     ry="2" />
  <rect
     style="fill:#ffffff;fill-opacity:1;stroke:none;opacity:0.2"
     id="rect3774"
     width="2"
     height="3"
     x="24"
     y="8" />
  <rect
     ry="2"
     rx="2"
     y="11"
     x="16"
     height="29"
     width="16"
     id="rect4174"
     style="opacity:0.2;fill:#6fa7ce;fill-opacity:1;fill-rule:nonzero;stroke:none;stroke-width:3;stroke-linecap:butt;stroke-linejoin:miter;stroke-miterlimit:4;stroke-dasharray:none;stroke-dashoffset:0;stroke-opacity:1" />
  <rect
     style="opacity:0.2;fill:#ffffff;fill-opacity:1;stroke:none"
     id="rect3772"
     width="3"
     height="29"
     x="27"
     y="11" />
</svg>
